icons/desktop/16/taskbar-move-tab-16.svg

<svg width="16" height="16" viewBox="0 0 16 16" fill="none" xmlns="http://www.w3.org/2000/svg">
<path d="M0.75 3.99902C1.164 3.99902 1.5 4.33502 1.5 4.74902V12.3525C1.5 12.8835 1.91531 13.3236 2.44531 13.3516C4.39146 13.4546 9.13593 13.5021 11.2549 13.4961C11.6679 13.4951 12 13.8302 12 14.2432C11.9999 14.6531 11.6717 14.9862 11.2617 14.9902C10.7712 14.9952 11.201 15 11 15C9.142 15 4.24991 14.9496 2.37891 14.8506C1.04712 14.7805 0.000245466 13.6882 0 12.3545V4.75C1.26417e-05 4.33601 0.336008 4.00002 0.75 3.99902Z" fill="black"/>
<path d="M9.5 1C10.5892 1 11.6408 1.02673 12.6514 1.07422L13.6484 1.12891C14.9683 1.21148 16 2.29954 16 3.62695V9.375C16 10.7098 14.9519 11.7913 13.6357 11.8721C12.1825 11.9621 10.8002 12 9.5 12C8.41076 12 7.35917 11.9733 6.34863 11.9258L5.35156 11.8711C4.03173 11.7885 3.00002 10.7005 3 9.37305V8.75H4.5V9.37305C4.50002 9.90359 4.91118 10.3406 5.44531 10.374C6.72687 10.4531 8.0804 10.5 9.5 10.5C10.7716 10.5 12.1234 10.463 13.5439 10.375C14.0858 10.3418 14.5 9.90019 14.5 9.375V3.62695C14.5 3.09641 14.0888 2.6594 13.5547 2.62598C12.2734 2.54691 10.9192 2.5 9.5 2.5C8.54632 2.5 7.54774 2.52096 6.50879 2.56836L5.45605 2.625C4.91421 2.65825 4.5 3.09981 4.5 3.625V4.24902H3V3.625C3 2.29046 4.04751 1.20908 5.36328 1.12793C6.81676 1.03791 8.19962 1 9.5 1Z" fill="black"/>
<path d="M6.99902 4.39453C6.99902 4.04453 7.42195 3.86921 7.66895 4.11621L9.77637 6.22266C9.92935 6.37564 9.92932 6.62532 9.77637 6.77832L7.66992 8.88379C7.42301 9.1307 7.0003 8.9562 7 8.60645V7.25H3.75C3.336 7.25 3 6.914 3 6.5C3 6.086 3.336 5.75 3.75 5.75H6.99902V4.39453Z" fill="black"/>
</svg>

<!-- This Source Code Form is subject to the terms of the Mozilla Public
   - License, v. 2.0. If a copy of the MPL was not distributed with this
   - file, You can obtain one at http://mozilla.org/MPL/2.0/. -->
<svg xmlns="http://www.w3.org/2000/svg" width="16" height="16" fill="context-fill" fill-opacity="context-fill-opacity" viewBox="0 0 16 16">
    <path d="M.75 3.999a.75.75 0 0 1 .75.75v7.603a1 1 0 0 0 .945 1c1.946.103 6.69.15 8.81.144a.744.744 0 0 1 .745.747c0 .41-.328.743-.738.747-.49.005-.061.01-.262.01-1.858 0-6.75-.05-8.621-.15A2.503 2.503 0 0 1 0 12.356V4.75c0-.414.336-.75.75-.751" />
    <path d="M9.5 1q1.635.002 3.151.074l.997.055A2.503 2.503 0 0 1 16 3.627v5.748a2.51 2.51 0 0 1-2.364 2.497 67 67 0 0 1-7.287.054l-.997-.055A2.503 2.503 0 0 1 3 9.373V8.75h1.5v.623c0 .53.411.968.945 1.001a66 66 0 0 0 8.099.001 1.01 1.01 0 0 0 .956-1V3.627c0-.53-.411-.968-.945-1.001a66 66 0 0 0-7.046-.058l-1.053.057a1.01 1.01 0 0 0-.956 1v.624H3v-.624a2.51 2.51 0 0 1 2.363-2.497A67 67 0 0 1 9.5 1" />
    <path d="M6.999 4.395c0-.35.423-.526.67-.279l2.107 2.107a.394.394 0 0 1 0 .555L7.67 8.884A.392.392 0 0 1 7 8.606V7.25H3.75a.75.75 0 0 1 0-1.5h3.249z" />
</svg>
